src/lib/packages/icons/src/assets/line/baseball.svg

<svg width="24" height="24" viewBox="0 0 24 24" fill="none" xmlns="http://www.w3.org/2000/svg">
<path d="M22.72 11.1399C22.3 5.85992 18.16 1.71992 12.87 1.27992C12.35 1.23992 11.79 1.23992 11.27 1.26992C11.22 1.26992 11.17 1.26991 11.13 1.28991C5.86 1.70991 1.64 5.97992 1.28 11.2799C1.27 11.5199 1.26001 11.7599 1.26001 11.9999C1.26001 12.2899 1.27001 12.5799 1.29001 12.8599C1.71001 18.1399 5.85001 22.2799 11.14 22.7199C11.42 22.7399 11.72 22.7499 12.01 22.7499C12.26 22.7499 12.5 22.7399 12.74 22.7299C12.79 22.7299 12.84 22.7299 12.88 22.7099C18.15 22.2899 22.37 18.0199 22.73 12.7199C22.74 12.4799 22.75 12.2399 22.75 11.9999C22.75 11.7099 22.74 11.4199 22.72 11.1399ZM12.74 21.2099C12.74 21.1399 12.75 21.0699 12.75 20.9999C12.75 20.1999 12.65 19.4099 12.46 18.6399C12.36 18.2399 11.95 17.9899 11.55 18.0899C11.15 18.1899 10.9 18.5999 11 18.9999C11.17 19.6499 11.25 20.3199 11.25 20.9999C11.25 21.0699 11.24 21.1499 11.24 21.2199C6.70999 20.8399 3.17001 17.2999 2.79001 12.7799C3.46001 12.7699 4.11999 12.7999 4.76999 12.9399C5.16999 13.0299 5.57 12.7699 5.66 12.3699C5.75 11.9599 5.49 11.5599 5.09 11.4699C4.34 11.3099 3.56001 11.2399 2.79001 11.2599C3.15001 6.75991 6.76999 3.13991 11.27 2.78991C11.27 2.85991 11.26 2.92992 11.26 2.99992C11.26 3.79992 11.36 4.58992 11.55 5.35992C11.64 5.69992 11.94 5.92991 12.28 5.92991C12.34 5.92991 12.4 5.91992 12.46 5.90992C12.86 5.80992 13.11 5.39992 13.01 4.99992C12.84 4.34992 12.76 3.67992 12.76 2.99992C12.76 2.92992 12.77 2.84992 12.77 2.77992C17.3 3.15992 20.84 6.69992 21.22 11.2199C20.55 11.2299 19.89 11.1999 19.24 11.0599C18.84 10.9699 18.44 11.2299 18.35 11.6299C18.26 12.0399 18.52 12.4399 18.92 12.5299C19.6 12.6699 20.3 12.7499 21 12.7499C21.07 12.7499 21.15 12.7399 21.22 12.7399C20.86 17.2399 17.24 20.8599 12.74 21.2099ZM16.95 11.0699C16.81 11.2999 16.56 11.4299 16.31 11.4299C16.18 11.4299 16.04 11.3899 15.92 11.3199C15.31 10.9399 14.73 10.4899 14.21 9.98992L14.19 9.96992L14.11 9.88992C13.63 9.40992 13.21 8.87992 12.84 8.31992C12.61 7.97992 12.71 7.50991 13.06 7.28991C13.4 7.05991 13.87 7.15992 14.09 7.49992C14.41 7.97992 14.77 8.41992 15.17 8.82992L15.25 8.90992C15.25 8.90992 15.27 8.91991 15.27 8.92991C15.71 9.34991 16.19 9.71991 16.7 10.0399C17.06 10.2499 17.17 10.7199 16.95 11.0699ZM11.16 15.6799C11.39 16.0199 11.29 16.4899 10.94 16.7099C10.82 16.7999 10.67 16.8399 10.53 16.8399C10.29 16.8399 10.05 16.7199 9.91 16.4999C9.59 16.0199 9.22999 15.5799 8.82999 15.1699L8.75 15.0899C8.75 15.0899 8.73001 15.0799 8.73001 15.0699C8.29001 14.6499 7.80999 14.2799 7.29999 13.9599C6.93999 13.7499 6.82999 13.2799 7.04999 12.9299C7.25999 12.5799 7.72999 12.4699 8.07999 12.6799C8.68999 13.0599 9.27001 13.5099 9.79001 14.0099L9.81 14.0299L9.89001 14.1099C10.37 14.5899 10.79 15.1199 11.16 15.6799Z" fill="currentColor"/>
</svg>

<svg xmlns="http://www.w3.org/2000/svg" width="24" height="24" fill="none"><path fill="currentColor" d="M22.72 11.14c-.42-5.28-4.56-9.42-9.85-9.86-.52-.04-1.08-.04-1.6-.01-.05 0-.1 0-.14.02-5.27.42-9.49 4.69-9.85 9.99a12.14 12.14 0 0 0 .01 1.58c.42 5.28 4.56 9.42 9.85 9.86.28.02.58.03.87.03.25 0 .49-.01.73-.02.05 0 .1 0 .14-.02 5.27-.42 9.49-4.69 9.85-9.99a12.14 12.14 0 0 0-.01-1.58Zm-9.98 10.07c0-.07.01-.14.01-.21 0-.8-.1-1.59-.29-2.36-.1-.4-.51-.65-.91-.55-.4.1-.65.51-.55.91.17.65.25 1.32.25 2 0 .07-.01.15-.01.22a9.21 9.21 0 0 1-8.45-8.44c.67-.01 1.33.02 1.98.16.4.09.8-.17.89-.57a.756.756 0 0 0-.57-.9c-.75-.16-1.53-.23-2.3-.21.36-4.5 3.98-8.12 8.48-8.47 0 .07-.01.14-.01.21 0 .8.1 1.59.29 2.36a.757.757 0 0 0 .91.55c.4-.1.65-.51.55-.91-.17-.65-.25-1.32-.25-2 0-.07.01-.15.01-.22a9.21 9.21 0 0 1 8.45 8.44c-.67.01-1.33-.02-1.98-.16a.75.75 0 0 0-.89.57c-.09.41.17.81.57.9.68.14 1.38.22 2.08.22.07 0 .15-.01.22-.01-.36 4.5-3.98 8.12-8.48 8.47Zm4.21-10.14c-.14.23-.39.36-.64.36-.13 0-.27-.04-.39-.11-.61-.38-1.19-.83-1.71-1.33l-.02-.02-.08-.08c-.48-.48-.9-1.01-1.27-1.57a.735.735 0 0 1 .22-1.03c.34-.23.81-.13 1.03.21.32.48.68.92 1.08 1.33l.08.08s.02.01.02.02c.44.42.92.79 1.43 1.11.36.21.47.68.25 1.03Zm-5.79 4.61c.23.34.13.81-.22 1.03-.12.09-.27.13-.41.13-.24 0-.48-.12-.62-.34a9.23 9.23 0 0 0-1.08-1.33l-.08-.08s-.02-.01-.02-.02c-.44-.42-.92-.79-1.43-1.11a.74.74 0 0 1-.25-1.03c.21-.35.68-.46 1.03-.25.61.38 1.19.83 1.71 1.33l.02.02.08.08c.48.48.9 1.01 1.27 1.57Z"/></svg>
